svg/fluentui-system-icons/ic_fluent_person_add_16_filled.svg

<svg width="16" height="16" viewBox="0 0 16 16" fill="none" xmlns="http://www.w3.org/2000/svg">
<path d="M9.62596 5.06907C8.31349 5.27865 7.15594 5.95255 6.32704 6.91706C5.13357 6.61687 4.25 5.53662 4.25 4.25C4.25 2.73122 5.48122 1.5 7 1.5C8.51878 1.5 9.75 2.73122 9.75 4.25C9.75 4.53525 9.70657 4.81036 9.62596 5.06907ZM5.59971 8C5.21628 8.75007 5 9.59978 5 10.5C5 11.8095 5.45766 13.0122 6.22176 13.9567C3.55468 13.653 2 11.8026 2 10V9.5C2 8.67157 2.67157 8 3.5 8H5.59971ZM10.5 15C12.9853 15 15 12.9853 15 10.5C15 8.01472 12.9853 6 10.5 6C8.01472 6 6 8.01472 6 10.5C6 12.9853 8.01472 15 10.5 15ZM10.5 8C10.7761 8 11 8.22386 11 8.5V10H12.5C12.7761 10 13 10.2239 13 10.5C13 10.7761 12.7761 11 12.5 11H11V12.5C11 12.7761 10.7761 13 10.5 13C10.2239 13 10 12.7761 10 12.5V11H8.5C8.22386 11 8 10.7761 8 10.5C8 10.2239 8.22386 10 8.5 10H10V8.5C10 8.22386 10.2239 8 10.5 8Z" fill="#212121"/>
</svg>

<svg xmlns="http://www.w3.org/2000/svg" width="16" height="16"><path d="M9.626 5.07a5.493 5.493 0 0 0-3.299 1.847A2.751 2.751 0 1 1 9.626 5.07ZM5.6 8c-.384.75-.6 1.6-.6 2.5 0 1.31.458 2.512 1.222 3.457C3.555 13.653 2 11.803 2 10v-.5A1.5 1.5 0 0 1 3.5 8h2.1Zm4.9 7a4.5 4.5 0 1 0 0-9 4.5 4.5 0 0 0 0 9Zm0-7a.5.5 0 0 1 .5.5V10h1.5a.5.5 0 0 1 0 1H11v1.5a.5.5 0 0 1-1 0V11H8.5a.5.5 0 0 1 0-1H10V8.5a.5.5 0 0 1 .5-.5Z"/></svg>
